Infinity-Icons/Infinity-Light-Icons/preferences/22/preferences-desktop-launch-feedback.svg

<svg height="22" width="22" xmlns="http://www.w3.org/2000/svg" xmlns:xlink="http://www.w3.org/1999/xlink"><linearGradient id="a" gradientUnits="userSpaceOnUse" x1="7" x2="9" y1="16" y2="8"><stop offset="0" stop-color="#197cf1"/><stop offset="1" stop-color="#20bcfa"/></linearGradient><linearGradient id="b" gradientUnits="userSpaceOnUse" x1="13.820312" x2="11" y1="14.820312" y2="12"><stop offset="0" stop-color="#197cf1"/><stop offset="1" stop-color="#20bcfa" stop-opacity="0"/></linearGradient><linearGradient id="c" gradientUnits="userSpaceOnUse" x1="7" x2="17" xlink:href="#e" y1="8" y2="18"/><linearGradient id="d" gradientTransform="matrix(.41666692 0 0 .40833269 -159.23827 -203.25094)" gradientUnits="userSpaceOnUse" x2="0" y1="543.79797" y2="502.65509"><stop offset="0" stop-color="#c6cdd1"/><stop offset="1" stop-color="#e0e5e7"/></linearGradient><linearGradient id="e" gradientUnits="userSpaceOnUse" x1="5.375003" x2="14.75002" y1="7.000012" y2="16.375009"><stop offset="0"/><stop offset="1" stop-opacity="0"/></linearGradient><path d="m1.000006 2h19.999994v18h-19.999994z" fill="url(#d)" stroke-width=".633866"/><path d="m2 18 18-11 1 1v12h-17z" fill="url(#e)" fill-rule="evenodd" opacity=".2" stroke-width=".625"/><path d="m1 2h20.000002v3h-20.000002z" fill="#566069" stroke-width=".684653"/><path d="m1.000027 5h19.999973v1h-19.999973z" fill="#3daee9" stroke-width=".790569"/><path d="m2 7h18v10.999999h-18z" fill="#fff" stroke-width=".574456"/><rect fill="#eff0f1" height="1.5" rx=".75" stroke-width=".75" width="1.5" x="18.75" y="2.75"/><path d="m10.714844 8.0097656a4 4 0 0 0 -2.542969 1.1621094 4 4 0 0 0 0 5.65625 4 4 0 0 0 .1152344.09961l3.0722656 3.072265h8.640625v-2.65625l-6.171875-6.171875a4 4 0 0 0 -3.113281-1.1621094z" fill="url(#c)" opacity=".2"/><g stroke-width="1.77778"><path d="m13.828125 9.171875-.707031.7070312c.542893.5428938.878906 1.2926668.878906 2.1210938 0 1.656854-1.343146 3-3 3-.795604-.00012-1.5585768-.316269-2.1210938-.878906l-.6992187.699218c.746828.751138 1.7610955 1.175388 2.8203125 1.179688 2.209139 0 4-1.790861 4-4 0-1.10457-.448017-2.1042674-1.171875-2.828125z" fill="url(#b)"/><path d="m11 8c-2.209139 0-4 1.790861-4 4s1.790861 4 4 4c1.059217-.0043 2.073484-.428551 2.820312-1.179688l-.699218-.699218c-.562517.562637-1.32549.878786-2.121094.878906-1.6568542 0-3-1.343146-3-3s1.3431458-3 3-3z" fill="url(#a)"/></g></svg>

<?xml version="1.0" encoding="UTF-8" standalone="no"?>
<svg
   height="22"
   width="22"
   version="1.1"
   id="svg258"
   sodipodi:docname="preferences-desktop-launch-feedback.svg"
   inkscape:version="1.2.1 (9c6d41e410, 2022-07-14)"
   xmlns:inkscape="http://www.inkscape.org/namespaces/inkscape"
   xmlns:sodipodi="http://sodipodi.sourceforge.net/DTD/sodipodi-0.dtd"
   xmlns:xlink="http://www.w3.org/1999/xlink"
   xmlns="http://www.w3.org/2000/svg"
   xmlns:svg="http://www.w3.org/2000/svg">
  <defs
     id="defs262">
    <linearGradient
       inkscape:collect="always"
       id="linearGradient3544">
      <stop
         style="stop-color:#2e4051;stop-opacity:1;"
         offset="0"
         id="stop3540" />
      <stop
         style="stop-color:#385061;stop-opacity:1;"
         offset="1"
         id="stop3542" />
    </linearGradient>
    <linearGradient
       id="a-3"
       x1="428.81601"
       x2="388.86499"
       y1="547.63397"
       y2="499.67899"
       gradientTransform="matrix(0.4500002,0,0,0.44685936,-172.85657,-223.00209)"
       gradientUnits="userSpaceOnUse">
      <stop
         stop-color="#bdc3c7"
         offset="0"
         id="stop2193" />
      <stop
         stop-color="#eff0f1"
         offset="1"
         id="stop2195" />
    </linearGradient>
    <linearGradient
       id="i"
       gradientUnits="userSpaceOnUse"
       x1="19.915001"
       x2="33.915001"
       y1="-5.5933328"
       y2="8.4066668"
       gradientTransform="translate(-43.932612,-24.930416)">
      <stop
         offset="0"
         stop-color="#292c2f"
         id="stop743" />
      <stop
         offset="1"
         stop-opacity="0"
         id="stop745" />
    </linearGradient>
    <linearGradient
       id="linearGradient732"
       gradientUnits="userSpaceOnUse"
       x1="7"
       x2="17"
       xlink:href="#e"
       y1="8"
       y2="18" />
    <linearGradient
       id="linearGradient736"
       gradientUnits="userSpaceOnUse"
       x1="5.3750029"
       x2="14.75002"
       y1="7.0000119"
       y2="16.37501">
      <stop
         offset="0"
         id="stop233-3" />
      <stop
         offset="1"
         stop-opacity="0"
         id="stop235-6" />
    </linearGradient>
    <linearGradient
       id="linearGradient740"
       gradientUnits="userSpaceOnUse"
       x1="13.820312"
       x2="11"
       y1="14.820312"
       y2="12">
      <stop
         offset="0"
         stop-color="#197cf1"
         id="stop222-7" />
      <stop
         offset="1"
         stop-color="#20bcfa"
         stop-opacity="0"
         id="stop224-5" />
    </linearGradient>
    <linearGradient
       id="linearGradient744"
       gradientUnits="userSpaceOnUse"
       x1="7"
       x2="9"
       y1="16"
       y2="8">
      <stop
         offset="0"
         stop-color="#197cf1"
         id="stop217-3" />
      <stop
         offset="1"
         stop-color="#20bcfa"
         id="stop219-5" />
    </linearGradient>
    <linearGradient
       inkscape:collect="always"
       xlink:href="#linearGradient740"
       id="linearGradient753-0"
       gradientUnits="userSpaceOnUse"
       x1="13.820312"
       y1="14.820312"
       x2="11"
       y2="12" />
    <linearGradient
       inkscape:collect="always"
       xlink:href="#linearGradient744"
       id="linearGradient755-6"
       gradientUnits="userSpaceOnUse"
       x1="7"
       y1="16"
       x2="9"
       y2="8" />
    <linearGradient
       inkscape:collect="always"
       xlink:href="#e"
       id="linearGradient1027"
       gradientUnits="userSpaceOnUse"
       gradientTransform="translate(0,0.51114905)"
       x1="7"
       y1="8"
       x2="17"
       y2="18" />
    <linearGradient
       inkscape:collect="always"
       xlink:href="#linearGradient3544"
       id="linearGradient3546"
       x1="2.4500644"
       y1="0"
       x2="20"
       y2="17.183025"
       gradientUnits="userSpaceOnUse" />
  </defs>
  <sodipodi:namedview
     id="namedview260"
     pagecolor="#ffffff"
     bordercolor="#666666"
     borderopacity="1.0"
     inkscape:showpageshadow="2"
     inkscape:pageopacity="0.0"
     inkscape:pagecheckerboard="0"
     inkscape:deskcolor="#d1d1d1"
     showgrid="false"
     inkscape:zoom="15.170655"
     inkscape:cx="13.776597"
     inkscape:cy="14.600556"
     inkscape:window-width="1920"
     inkscape:window-height="1000"
     inkscape:window-x="0"
     inkscape:window-y="0"
     inkscape:window-maximized="1"
     inkscape:current-layer="svg258">
    <inkscape:grid
       type="xygrid"
       id="grid219" />
  </sodipodi:namedview>
  <linearGradient
     id="a"
     gradientUnits="userSpaceOnUse"
     x1="7"
     x2="9"
     y1="16"
     y2="8">
    <stop
       offset="0"
       stop-color="#197cf1"
       id="stop217" />
    <stop
       offset="1"
       stop-color="#20bcfa"
       id="stop219" />
  </linearGradient>
  <linearGradient
     id="b"
     gradientUnits="userSpaceOnUse"
     x1="13.820312"
     x2="11"
     y1="14.820312"
     y2="12">
    <stop
       offset="0"
       stop-color="#197cf1"
       id="stop222" />
    <stop
       offset="1"
       stop-color="#20bcfa"
       stop-opacity="0"
       id="stop224" />
  </linearGradient>
  <linearGradient
     id="c"
     gradientUnits="userSpaceOnUse"
     x1="7"
     x2="17"
     xlink:href="#e"
     y1="8"
     y2="18" />
  <linearGradient
     id="d"
     gradientTransform="matrix(.41666692 0 0 .40833269 -159.23827 -203.25094)"
     gradientUnits="userSpaceOnUse"
     x2="0"
     y1="543.79797"
     y2="502.65509">
    <stop
       offset="0"
       stop-color="#c6cdd1"
       id="stop228" />
    <stop
       offset="1"
       stop-color="#e0e5e7"
       id="stop230" />
  </linearGradient>
  <linearGradient
     id="e"
     gradientUnits="userSpaceOnUse"
     x1="5.375003"
     x2="14.75002"
     y1="7.000012"
     y2="16.375009">
    <stop
       offset="0"
       id="stop233" />
    <stop
       offset="1"
       stop-opacity="0"
       id="stop235" />
  </linearGradient>
  <rect
     x="2.000001"
     y="2.1256704"
     width="17.999998"
     height="17.874367"
     rx="8.999999"
     ry="8.9371834"
     id="rect2220"
     style="stroke-width:0.448427;fill:#384f61;fill-opacity:1" />
  <rect
     x="2.000001"
     y="2.1256704"
     width="17.999998"
     height="17.427511"
     rx="8.999999"
     ry="8.7137556"
     id="rect2222"
     style="fill-opacity:1;fill:url(#linearGradient3546)" />
  <rect
     width="1.2857143"
     x="15.292142"
     y="4.5189285"
     rx="0.64285713"
     height="1.2767406"
     id="rect25-8-7"
     style="stroke-width:0.0427073;fill:#ffffff"
     inkscape:transform-center-x="3.1311411"
     inkscape:transform-center-y="-2.5473106" />
  <rect
     width="15.300001"
     x="3.3714304"
     y="6.2627354"
     rx="0"
     height="0.42558017"
     id="rect27-9"
     style="fill:#3385ff;fill-opacity:1;stroke-width:0.0392763" />
  <path
     d="m 10.714844,8.5209155 a 4,4 0 0 0 -2.542969,1.162109 4,4 0 0 0 0,5.6562505 4,4 0 0 0 0.115234,0.09961 l 3.072266,3.072265 H 20 V 15.8549 L 13.828125,9.6830245 a 4,4 0 0 0 -3.113281,-1.162109 z"
     fill="url(#c)"
     opacity="0.2"
     id="path250-6-2"
     style="fill:url(#linearGradient1027)" />
  <g
     stroke-width="1.77778"
     id="g256-2-6"
     transform="translate(0,0.51114905)">
    <path
       d="M 13.828125,9.171875 13.121094,9.8789062 C 13.663987,10.4218 14,11.171573 14,12 c 0,1.656854 -1.343146,3 -3,3 -0.795604,-1.2e-4 -1.5585768,-0.316269 -2.1210938,-0.878906 L 8.1796875,14.820312 C 8.9265155,15.57145 9.940783,15.9957 11,16 c 2.209139,0 4,-1.790861 4,-4 0,-1.10457 -0.448017,-2.1042674 -1.171875,-2.828125 z"
       fill="url(#b)"
       id="path252-9-1"
       style="fill:url(#linearGradient753-0)" />
    <path
       d="m 11,8 c -2.209139,0 -4,1.790861 -4,4 0,2.209139 1.790861,4 4,4 1.059217,-0.0043 2.073484,-0.428551 2.820312,-1.179688 L 13.121094,14.121094 C 12.558577,14.683731 11.795604,14.99988 11,15 9.3431458,15 8,13.656854 8,12 8,10.343146 9.3431458,9 11,9 Z"
       fill="url(#a)"
       id="path254-1-8"
       style="fill:url(#linearGradient755-6)" />
  </g>
</svg>
